!!!SOCIAL_FUNCTION:	flower dance songs
!!!PDT:	1957
!!!OTL: No_28_Flower_Dance_Song.krn
!!!LING_GROUP: Keresan
!!!LANG: Tone
!!!REG: Southwest
**kern	**kern
*staff2	*staff1
=1-	=1-
*clefF4	*clefF4
*k[f#c#g#d#a#]	*k[f#c#g#d#a#]
*M2/4	*M2/4
4GG#/	4G#\
4GG#/	8G#\L
.	8G#\J
=2	=2
*M3/4	*M3/4
4GG#/	4G#\
4GG#/	4G#\
4GG#/	4G#\
=3!|:	=3!|:
4GG#/	8G#\L
.	8d#\J
4GG#/	8d#\L
.	8d#\J
4GG#/	8d#\L
.	16d#\L
.	16c#\JJ
=4	=4
*M2/4	*M2/4
4GG#/	4B\
4GG#/	4B\
=5	=5
*M5/8	*M5/8
4GG#/	16B\LL
.	16G#\J
.	8G#\
8GG#/	8G#\J
4GG#/	4G#\
=6	=6
*M3/4	*M3/4
4GG#/	8G#\L
.	8c#\J
4GG#/	8c#\L
.	8c#\J
4GG#/	12c#\L
.	12B\
.	12d#\J
=7	=7
4GG#/	4c#\
4GG#/	8c#\
.	8r
4GG#/	4B\
=8	=8
*M5/8	*M5/8
4GG#/	16B\LL
.	16G#\J
.	8G#\
8GG#/	8G#\J
4GG#/	4G#\
=9	=9
*M3/4	*M3/4
4GG#/	8G#\L
.	8c#\J
4GG#/	8c#\L
.	8B\J
4GG#/	8B\L
.	8c#\J
=10	=10
*M2/4	*M2/4
4r	4B\
4GG#/	8B\L
.	8c#\J
=11	=11
4GG#/	16B\LK
.	8.G#\J
4GG#/	8G#\L
.	8G#\J
=12	=12
*M3/4	*M3/4
4GG#/	4G#\
4GG#/	4G#\
4GG#/	8G#\
.	8r
=13:|!	=13:|!
*M2/4	*M2/4
4GG#/	4G#\
4GG#/	4G#\
=14	=14
4GG#/	4G#\
4r	4r
=15!|:	=15!|:
*M3/4	*M3/4
4GG#/	8g#\L
.	8d#\J
4GG#/	4g#\
4GG#/	4g#\
=16	=16
*M2/4	*M2/4
4GG#/	12g#\L
.	12d#\
.	12d#\J
4GG#/	12d#\L
.	12c#\
.	12c#\J
=17	=17
4GG#/	8c#\L
.	8B\J
4GG#/	4d#\
=18	=18
4GG#/	8c#\L
.	8B\J
4GG#/	4d#\
=19	=19
4GG#/	4c#\
4GG#/	12c#\L
.	12B\
.	12B\J
=20	=20
*M3/8	*M3/8
4GG#/	8c#\L
.	8c#\
8GG#/	16c#\Jk
.	16r
=21	=21
*M2/4	*M2/4
4GG#/	8g#\L
.	8d#\J
4GG#/	4g#\
=22	=22
4GG#/	8d#\L
.	8c#\J
4GG#/	4d#\
=23	=23
4GG#/	8c#\L
.	8B\J
4GG#/	4d#\
=24	=24
4GG#/	4c#\
4GG#/	12c#\L
.	12B\
.	12B\J
=25	=25
*M5/8	*M5/8
4GG#/	8B\L
.	8G#\
8GG#/	8G#\
4r	8G#\J
.	8r
=26	=26
*M2/4	*M2/4
4GG#/	8d#\L
.	8d#\J
4GG#/	8c#\L
.	8c#\J
=27	=27
4GG#/	8B\L
.	8B\J
4GG#/	4G#\
=28	=28
4GG#/	8d#\L
.	8d#\J
4GG#/	8c#\L
.	8c#\J
=29	=29
4GG#/	8B\L
.	8B\J
4GG#/	8G#\L
.	8c#\J
=30	=30
4GG#/	16B\LK
.	8.G#\J
4GG#/	8G#\L
.	8G#\J
=31	=31
*M3/4	*M3/4
4GG#/	4G#\
4GG#/	4G#\
4GG#/	8G#\
.	8r
=32:|!	=32:|!
*M2/4	*M2/4
4GG#/	4G#\
4GG#/	4G#\
=33	=33
4GG#/	4B\
4GG#/	8B\L
.	8B\J
=34	=34
4GG#/	8B\L
.	8B\J
4GG#/	8B\L
.	8B\J
=35	=35
4GG#/	16B\LK
.	8.G#\J
4GG#/	8G#\L
.	8G#\J
=36	=36
*M3/4	*M3/4
4GG#/	8G#\L
.	8G#\J
4GG#/	4G#\
4GG#/	8G#\
.	8r
==	==
*-	*-
